src/static/logos/pagekite.svg

<svg width="256" height="285" xmlns="http://www.w3.org/2000/svg" preserveAspectRatio="xMidYMid"><path d="M206.052 203.265C237.813 190.014 256 183.436 256 183.436L189.698 0 0 40.15s4.022 11.406 10.833 56.141L152.495 64.46l53.557 138.805" fill="#E80022"/><path d="M22.837 187.856c3.068 27.315 6.069 58.652 9.577 96.507a2593.556 2593.556 0 0188.56-43.423l-25.941-69.291-72.196 16.207" fill="#B6B1B1"/><path d="M13.422 114.016c2.152 15.307 4.524 33.606 7.085 55.417l85.945-20.253 30.88 84.2a2291.268 2291.268 0 0150.227-22.289L141.076 86.93 13.422 114.016" fill="#748282"/></svg>

<?xml version="1.0" encoding="UTF-8" standalone="no"?>
<svg width="256px" height="285px" viewBox="0 0 256 285" version="1.1" xmlns="http://www.w3.org/2000/svg" xmlns:xlink="http://www.w3.org/1999/xlink" preserveAspectRatio="xMidYMid">
	<g>
		<path d="M206.052,203.265 C237.813,190.014 256,183.436 256,183.436 L189.698,0 L0,40.15 C0,40.15 4.022,51.556 10.833,96.291 L152.495,64.46 L206.052,203.265" fill="#E80022"></path>
		<path d="M22.837,187.856 C25.905,215.171 28.906,246.508 32.414,284.363 C64.581,267.83 94.334,253.374 120.974,240.94 L95.033,171.649 L22.837,187.856" fill="#B6B1B1"></path>
		<path d="M13.422,114.016 C15.574,129.323 17.946,147.622 20.507,169.433 L106.452,149.18 L137.332,233.38 C155.958,224.853 172.807,217.42 187.559,211.091 L141.076,86.93 L13.422,114.016" fill="#748282"></path>
	</g>
</svg>
